build/img/sprite/icon-facebook.svg

<svg width="16" height="16" viewBox="0 0 16 16" fill="none" xmlns="http://www.w3.org/2000/svg">
<path d="M15.75 8C15.75 3.71875 12.2812 0.25 8 0.25C3.71875 0.25 0.25 3.71875 0.25 8C0.25 11.875 3.0625 15.0938 6.78125 15.6562V10.25H4.8125V8H6.78125V6.3125C6.78125 4.375 7.9375 3.28125 9.6875 3.28125C10.5625 3.28125 11.4375 3.4375 11.4375 3.4375V5.34375H10.4688C9.5 5.34375 9.1875 5.9375 9.1875 6.5625V8H11.3438L11 10.25H9.1875V15.6562C12.9062 15.0938 15.75 11.875 15.75 8Z"/>
</svg>

<svg width="16" height="16" fill="none" xmlns="http://www.w3.org/2000/svg"><path d="M15.75 8A7.749 7.749 0 008 .25 7.749 7.749 0 00.25 8c0 3.875 2.813 7.094 6.531 7.656V10.25H4.813V8H6.78V6.312c0-1.937 1.157-3.03 2.907-3.03.874 0 1.75.155 1.75.155v1.907h-.97c-.968 0-1.28.593-1.28 1.218V8h2.156L11 10.25H9.187v5.406A7.74 7.74 0 0015.75 8z"/></svg>
